G21      ; use mm
G90      ; absolute coordinates
G92.1    ; cancel offset coordinate system and set values to zero
G54      ; use G54 coordinate system
G40      ; turn radius compensation off
G17      ; choose x,y plane
G80      ; Cancel Motion Modes (e.g. active canned cycles)
G94      ; movement speed is in units per minute (hence mm/min)
G49      ; turn cutter legth compensation off
; It is always a good idea to go to a known safe location to run the warmup
G0 Z10   ; Go to saftyplane, usually you define the highest part of your workpiece as Z=0
; Spindle Warmup Sequence
M3       ; turn on spindle
S6000    ; 6000 min-1 spindle speed
;G4 P120  ; wait 2 minutes until spindle is warm
;S12000   ; add another 6000min-1
;G4 P120  ; again two minute wait
(repeat steps above [S + G4] until target speed is reached)

; TODO set this value correctly
F4000     ; 500mm/minutes movement speed

(your program starts here... now you can do things like)
G0 X0 Y0 ; go to your 0,0 point rapidly
G4 P0    ; Dwell for no time, to force linuxcnc to be on this point exactly



; Innere Bohrung
; --------------
; Cutter compensation
G42.1 D6
G1 X6 Y0

#1 = -3
o110 while [#1 GE -12]
    G0 Z#1

; TODO Muss wohl eher mehrmals von innen heraus
    G0 X38 Y0
    G2 I-38 J0

    #1 = [#1 - 3]
o110 endwhile

G40

; Äußere Bohrung
; --------------
; Hier kann man ohne Schruppen fahren, da das nur 1mm breit ist...
G0 X0 Y0
G42.1 D6
G0 X27 Y13

G0 Z-8.5
; Anlaufbogen
G2 R13 X39 Y0
G4 P0
; FIXME warum auch immer funktioniert hier kein Vollkreis! Daher zwei Halbkreise...
G2 X-39 Y0 I-39 J0
G2 X39 Y0 I39 J0
; Auslaufbogen
G2 R13 X27 Y-13

G40





; Der Chassis Auschnitt
; ---------------------
G0 Z-6
; Innenkontur --> IM Uhrzeigersinn fräsen
G0 X0 Y0

; define a variable
#1 = 1


o100 while [#1 LT 5]
    ; Cutter Compensation right of the path with 6mm Diameter
    G0 X0 Y0
    o101 if [#1 EQ 4]
        G42.1 D6
    o101 else
        #2 = [4-#1]
        #2 = [#2*6]
        #2 = [#2-1]
        G42.1 D#2
    o101 endif

    ; Anlaufbogen
    G0 X27 Y13
    G2 R13 X40 Y0
    ; Q4
    G2 R128.54 X37.1 Y-27.14
    G2 R13 X27.14 Y-37.1
    G2 R128.54 X0 Y-40
    ; Q3
    G2 R128.54 X-27.14 Y-37.1
    G2 R13 X-37.1 Y-27.14
    G2 R128.54 X-40 Y0
    ; Q2
    G2 R128.54 X-37.1 Y27.14
    G2 R13 X-27.14 Y37.1
    G2 R128.54 X0 Y40
    ; Q1
    G2 R128.54 X27.14 Y37.1
    G2 R13 X37.1 Y27.14
    G2 R128.54 X40 Y0

    ; Auslaufbogen
    G2 R13 X27 Y-13

    G40
    #1 = [#1+1]
o100 endwhile

G0 X0 Y0



; the tail
G0 Z10   ; retract from workplane - safty plane
M30      ; end program

