; Touch off for this workpiece:
; the chassis should be located 75mm from the top and in the center of the plate (60mm from each side)
; The center of the chassis is X0 Y0 in this gcode file.
; The top of the mdf plate is 0, so the bottom is -12mm

G21      ; use mm
G90      ; absolute coordinates
G92.1    ; cancel offset coordinate system and set values to zero
G54      ; use G54 coordinate system
G40      ; turn radius compensation off
G17      ; choose x,y plane
G80      ; Cancel Motion Modes (e.g. active canned cycles)
G94      ; movement speed is in units per minute (hence mm/min)
G49      ; turn cutter legth compensation off
; It is always a good idea to go to a known safe location to run the warmup
G0 Z10   ; Go to saftyplane, usually you define the highest part of your workpiece as Z=0
; Spindle Warmup Sequence
M3       ; turn on spindle
; TODO set the right spindle speed here
S6000    ; 6000 min-1 spindle speed
;G4 P120  ; wait 2 minutes until spindle is warm
;S12000   ; add another 6000min-1
;G4 P120  ; again two minute wait
(repeat steps above [S + G4] until target speed is reached)

; TODO set this value correctly
#<_plungerate> = 800
#<_feedrate> = 4000

F#<_feedrate>

(your program starts here... now you can do things like)
G0 X0 Y0 ; go to your 0,0 point rapidly
G4 P0    ; Dwell for no time, to force linuxcnc to be on this point exactly




; Innere Bohrung (76mm Durchmesser)
; ---------------------------------

G0 Z5.0000 
G0 X0.0000 Y0.0000 
( 76.0000 Diameter Circular Pocket at 0.0000,0.0000 )
( Spiral Zero Path )
G1 Z0.00 F#<_plungerate> (Move to Z Zero for incremental Z pathes )
G1 G91 Z-3.000 F#<_plungerate> 
G1 G90 X3.000 F#<_feedrate> 
G3 X-3.000 I-3.000 
G3 X6.000 I4.500 
G3 X-6.000 I-6.000 
G3 X9.000 I7.500 
G3 X-9.000 I-9.000 
G3 X12.000 I10.500 
G3 X-12.000 I-12.000 
G3 X15.000 I13.500 
G3 X-15.000 I-15.000 
G3 X18.000 I16.500 
G3 X-18.000 I-18.000 
G3 X21.000 I19.500 
G3 X-21.000 I-21.000 
G3 X24.000 I22.500 
G3 X-24.000 I-24.000 
G3 X27.000 I25.500 
G3 X-27.000 I-27.000 
G3 X30.000 I28.500 
G3 X-30.000 I-30.000 
G3 X33.000 I31.500 
G3 X-35.000 Y0.000 I-34.000 
G3 I35.000 
G1 X0.0000 Y0.0000 
G1 G91 Z-3.000 F#<_plungerate> 
G1 G90 X3.000 F#<_feedrate> 
G3 X-3.000 I-3.000 
G3 X6.000 I4.500 
G3 X-6.000 I-6.000 
G3 X9.000 I7.500 
G3 X-9.000 I-9.000 
G3 X12.000 I10.500 
G3 X-12.000 I-12.000 
G3 X15.000 I13.500 
G3 X-15.000 I-15.000 
G3 X18.000 I16.500 
G3 X-18.000 I-18.000 
G3 X21.000 I19.500 
G3 X-21.000 I-21.000 
G3 X24.000 I22.500 
G3 X-24.000 I-24.000 
G3 X27.000 I25.500 
G3 X-27.000 I-27.000 
G3 X30.000 I28.500 
G3 X-30.000 I-30.000 
G3 X33.000 I31.500 
G3 X-35.000 Y0.000 I-34.000 
G3 I35.000 
G1 X0.0000 Y0.0000 
G1 G91 Z-3.000 F#<_plungerate> 
G1 G90 X3.000 F#<_feedrate> 
G3 X-3.000 I-3.000 
G3 X6.000 I4.500 
G3 X-6.000 I-6.000 
G3 X9.000 I7.500 
G3 X-9.000 I-9.000 
G3 X12.000 I10.500 
G3 X-12.000 I-12.000 
G3 X15.000 I13.500 
G3 X-15.000 I-15.000 
G3 X18.000 I16.500 
G3 X-18.000 I-18.000 
G3 X21.000 I19.500 
G3 X-21.000 I-21.000 
G3 X24.000 I22.500 
G3 X-24.000 I-24.000 
G3 X27.000 I25.500 
G3 X-27.000 I-27.000 
G3 X30.000 I28.500 
G3 X-30.000 I-30.000 
G3 X33.000 I31.500 
G3 X-35.000 Y0.000 I-34.000 
G3 I35.000 
G1 X0.0000 Y0.0000 
G1 G91 Z-3.000 F#<_plungerate> 
G1 G90 X3.000 F#<_feedrate> 
G3 X-3.000 I-3.000 
G3 X6.000 I4.500 
G3 X-6.000 I-6.000 
G3 X9.000 I7.500 
G3 X-9.000 I-9.000 
G3 X12.000 I10.500 
G3 X-12.000 I-12.000 
G3 X15.000 I13.500 
G3 X-15.000 I-15.000 
G3 X18.000 I16.500 
G3 X-18.000 I-18.000 
G3 X21.000 I19.500 
G3 X-21.000 I-21.000 
G3 X24.000 I22.500 
G3 X-24.000 I-24.000 
G3 X27.000 I25.500 
G3 X-27.000 I-27.000 
G3 X30.000 I28.500 
G3 X-30.000 I-30.000 
G3 X33.000 I31.500 
G3 X-35.000 Y0.000 I-34.000 
G3 I35.000 
G1 X0.0000 Y0.0000 
G1 G91 Z-1.000 F#<_plungerate> 
G1 G90 X3.000 F#<_feedrate> 
G3 X-3.000 I-3.000 
G3 X6.000 I4.500 
G3 X-6.000 I-6.000 
G3 X9.000 I7.500 
G3 X-9.000 I-9.000 
G3 X12.000 I10.500 
G3 X-12.000 I-12.000 
G3 X15.000 I13.500 
G3 X-15.000 I-15.000 
G3 X18.000 I16.500 
G3 X-18.000 I-18.000 
G3 X21.000 I19.500 
G3 X-21.000 I-21.000 
G3 X24.000 I22.500 
G3 X-24.000 I-24.000 
G3 X27.000 I25.500 
G3 X-27.000 I-27.000 
G3 X30.000 I28.500 
G3 X-30.000 I-30.000 
G3 X33.000 I31.500 
G3 X-35.000 Y0.000 I-34.000 
G3 I35.000 
G1 X0.0000 Y0.0000 
G0 Z5.0000 


( ====== END POCKET.py ====== )



; Äußere Bohrung
; --------------
; Hier kann man ohne Schruppen fahren, da das nur 1mm breit ist...
G0 X0 Y0
G42.1 D6
G0 X27 Y13

G0 Z-8.5
; Anlaufbogen
G2 R13 X39 Y0
G4 P0
; warum auch immer funktioniert hier kein Vollkreis! Daher zwei Halbkreise...
G2 X-39 Y0 I-39 J0
G2 X39 Y0 I39 J0
; Auslaufbogen
G2 R13 X27 Y-13

G40

G0 Z10





; Der Chassis Auschnitt
; ---------------------
; Innenkontur --> IM Uhrzeigersinn fräsen
G0 X0 Y0
G0 Z-6

; define a variable
#1 = 1


o100 while [#1 LE 4]
    ; Cutter Compensation right of the path with 6mm Diameter
    G0 X0 Y0
    o101 if [#1 EQ 4]
        G42.1 D6
    o101 else
        #2 = [4-#1]
        #2 = [#2*6]
        #2 = [#2+1]
        G42.1 D#2
    o101 endif

    ; Anlaufbogen
    G0 X27 Y13
    G2 R13 X40 Y0
    ; Q4
    G2 R128.54 X37.1 Y-27.14
    G2 R13 X27.14 Y-37.1
    G2 R128.54 X0 Y-40
    ; Q3
    G2 R128.54 X-27.14 Y-37.1
    G2 R13 X-37.1 Y-27.14
    G2 R128.54 X-40 Y0
    ; Q2
    G2 R128.54 X-37.1 Y27.14
    G2 R13 X-27.14 Y37.1
    G2 R128.54 X0 Y40
    ; Q1
    G2 R128.54 X27.14 Y37.1
    G2 R13 X37.1 Y27.14
    G2 R128.54 X40 Y0

    ; Auslaufbogen
    G2 R13 X27 Y-13

    G40
    #1 = [#1+1]
o100 endwhile

G0 X0 Y0



; the tail
G0 Z10   ; retract from workplane - safty plane
M30      ; end program

